packages/kaspersky-hexa-ui-icons/src/iconsSVGs/24/WeiboColor.svg

<svg width="24" height="24" viewBox="0 0 24 24" fill="none" xmlns="http://www.w3.org/2000/svg">
<path d="M2.6272 15.3421C2.6272 17.9015 5.95929 19.977 10.0705 19.977C14.1817 19.977 17.5138 17.9012 17.5138 15.3421C17.5138 12.783 14.1814 10.7075 10.0705 10.7075C5.95958 10.7075 2.6272 12.7827 2.6272 15.3421Z" fill="white"/>
<path d="M10.2439 19.5997C6.60553 19.9586 3.46485 18.3145 3.22814 15.9254C2.99201 13.537 5.75103 11.3095 9.3888 10.9498C13.0274 10.5898 16.1684 12.2345 16.4045 14.6223C16.6404 17.0117 13.8825 19.2397 10.2439 19.5997ZM17.5215 11.6699C17.212 11.5775 16.9998 11.5141 17.1617 11.1076C17.5127 10.2245 17.5489 9.4629 17.1684 8.91934C16.4551 7.90031 14.5029 7.95496 12.2653 8.89216C12.2653 8.8907 11.5627 9.19959 11.7422 8.6423C12.0864 7.5356 12.0344 6.60891 11.4987 6.07382C10.2851 4.85899 7.05674 6.11971 4.28809 8.88719C2.21496 10.9606 1.01123 13.1579 1.01123 15.0581C1.01123 18.6926 5.67212 20.9022 10.2319 20.9022C16.209 20.9022 20.1852 17.4293 20.1852 14.6723C20.1852 13.0063 18.7822 12.0609 17.5215 11.6699Z" fill="#E6162D"/>
<path d="M21.4901 5.01882C20.0468 3.41853 17.9175 2.80863 15.9522 3.22624C15.8441 3.24933 15.7411 3.29347 15.6501 3.35615C15.5591 3.41884 15.4813 3.49883 15.4212 3.59157C15.3611 3.68431 15.3199 3.78798 15.2998 3.89666C15.2798 4.00533 15.2814 4.11689 15.3045 4.22496C15.3276 4.33303 15.3717 4.4355 15.4344 4.52651C15.4971 4.61752 15.5771 4.69529 15.6698 4.75538C15.7625 4.81548 15.8662 4.85672 15.9749 4.87675C16.0836 4.89678 16.1951 4.89521 16.3032 4.87212C17.7013 4.57521 19.2142 5.01006 20.2411 6.14628C20.7277 6.68554 21.0638 7.34343 21.2155 8.05378C21.3671 8.76412 21.3291 9.50189 21.1052 10.1929C21.0711 10.2981 21.0583 10.4092 21.0671 10.5194C21.0759 10.6297 21.1063 10.7371 21.1567 10.8355C21.207 10.9339 21.2763 11.0215 21.3606 11.0931C21.4448 11.1647 21.5424 11.219 21.6476 11.2528C21.8598 11.3214 22.0905 11.303 22.2892 11.2017C22.4878 11.1003 22.6381 10.9243 22.707 10.7122L22.7073 10.7087C23.3233 8.79687 22.9341 6.61736 21.4901 5.01882Z" fill="#FF9933"/>
<path d="M19.2732 7.0191C18.5707 6.2397 17.5335 5.94367 16.5758 6.14736C16.4805 6.16479 16.3897 6.20116 16.3087 6.25433C16.2278 6.30749 16.1583 6.37636 16.1044 6.45687C16.0505 6.53737 16.0133 6.62786 15.995 6.72299C15.9767 6.81813 15.9777 6.91596 15.9979 7.0107C16.0181 7.10545 16.0571 7.19517 16.1126 7.27457C16.1681 7.35397 16.239 7.42143 16.321 7.47295C16.4031 7.52447 16.4946 7.55901 16.5902 7.57452C16.6858 7.59003 16.7836 7.5862 16.8777 7.56325C17.1157 7.51237 17.3628 7.52548 17.5943 7.60015C17.8259 7.67483 18.0338 7.80903 18.1972 7.98933C18.3603 8.17007 18.4728 8.39063 18.5234 8.62875C18.5741 8.86687 18.561 9.11413 18.4856 9.3456C18.4265 9.5284 18.443 9.72719 18.5304 9.89827C18.6178 10.0693 18.7696 10.1987 18.9523 10.258C19.1352 10.3169 19.334 10.3009 19.505 10.2133C19.6761 10.1257 19.8053 9.97382 19.8644 9.79097C20.1654 8.85961 19.9772 7.7982 19.2732 7.0191Z" fill="#FF9933"/>
<path d="M10.4445 15.2728C10.3171 15.4908 10.0359 15.5955 9.81559 15.5046C9.59875 15.4152 9.53066 15.172 9.65398 14.9581C9.78081 14.7453 10.0514 14.6416 10.2674 14.7272C10.4872 14.8076 10.5661 15.0539 10.4445 15.2728ZM9.28518 16.7612C8.93332 17.3226 8.17964 17.5687 7.61183 17.3094C7.05248 17.0549 6.88737 16.4023 7.23981 15.855C7.58728 15.3099 8.31553 15.0668 8.87897 15.3029C9.44883 15.5461 9.63119 16.194 9.28518 16.7612ZM10.6076 12.7874C8.87605 12.3367 6.91893 13.1997 6.16701 14.7255C5.40105 16.2813 6.14187 18.0085 7.89062 18.5734C9.70278 19.1575 11.8385 18.2624 12.581 16.5826C13.3137 14.9409 12.3993 13.2506 10.6076 12.7874Z" fill="black"/>
</svg>

<svg xmlns="http://www.w3.org/2000/svg" width="24" height="24" fill="none" viewBox="0 0 24 24"><path fill="#fff" d="M2.6272 15.3421c0 2.5594 3.332 4.6349 7.4433 4.6349s7.4433-2.0758 7.4433-4.6349-3.3324-4.6346-7.4433-4.6346-7.4433 2.0752-7.4433 4.6346"/><path fill="#e6162d" d="M10.2439 19.5997c-3.6384.3589-6.779-1.2852-7.0158-3.6743-.236-2.3884 2.523-4.6159 6.1607-4.9756 3.6386-.36 6.7796 1.2847 7.0157 3.6725.2359 2.3894-2.522 4.6174-6.1606 4.9774m7.2776-7.9298c-.3095-.0924-.5217-.1558-.3598-.5623.351-.8831.3872-1.6447.0067-2.1883-.7133-1.019-2.6655-.9643-4.9031-.0271 0-.0015-.7026.3074-.5231-.2499.3442-1.1067.2922-2.0334-.2435-2.5685-1.2136-1.2148-4.442.046-7.2106 2.8134-2.0731 2.0734-3.2769 4.2707-3.2769 6.1709 0 3.6345 4.661 5.8441 9.2207 5.8441 5.9771 0 9.9533-3.4729 9.9533-6.2299 0-1.666-1.403-2.6114-2.6637-3.0024"/><path fill="#f93" d="M21.4901 5.0188c-1.4433-1.6003-3.5726-2.2102-5.5379-1.7926a.842.842 0 0 0-.6477.9987.8415.8415 0 0 0 .9987.6472c1.3981-.2969 2.911.138 3.9379 1.2742a4.137 4.137 0 0 1 .8641 4.0466.842.842 0 0 0 .2554.9002.84.84 0 0 0 .287.1597.8416.8416 0 0 0 1.0594-.5406l.0003-.0035c.616-1.9118.2268-4.0913-1.2172-5.6899"/><path fill="#f93" d="M19.2732 7.0191c-.7025-.7794-1.7397-1.0754-2.6974-.8717a.724.724 0 1 0 .3019 1.4158 1.39 1.39 0 0 1 .7166.037 1.39 1.39 0 0 1 .6029.3891 1.384 1.384 0 0 1 .2884 1.3563.725.725 0 0 0 .0448.5527.725.725 0 0 0 .4219.3597.725.725 0 0 0 .9121-.467c.301-.9314.1128-1.9928-.5912-2.7719"/><path fill="#000" d="M10.4445 15.2728c-.1274.218-.4086.3227-.629.2318-.2167-.0894-.2848-.3326-.1615-.5465.1268-.2128.3974-.3165.6134-.2309.2198.0804.2987.3267.1771.5456m-1.1593 1.4884c-.3519.5614-1.1056.8075-1.6734.5482-.5593-.2545-.7244-.9071-.372-1.4544.3475-.5451 1.0757-.7882 1.6392-.5521.5698.2432.7522.8911.4062 1.4583m1.3224-3.9738c-1.7316-.4507-3.6887.4123-4.4406 1.9381-.766 1.5558-.0251 3.283 1.7236 3.8479 1.8122.5841 3.9479-.311 4.6904-1.9908.7327-1.6417-.1817-3.332-1.9734-3.7952"/></svg>
